svgs/duotone/circle-arrow-up-right.svg

<svg xmlns="http://www.w3.org/2000/svg" viewBox="0 0 512 512"><!-- Font Awesome Pro 6.0.0-alpha2 by @fontawesome - https://fontawesome.com License - https://fontawesome.com/license (Commercial License) --><defs><style>.fa-secondary{opacity:.4}</style></defs><path d="M256 16C123.422 16 16 123.422 16 256S123.422 496 256 496S496 388.578 496 256S388.578 16 256 16ZM376 312C376 329.688 361.672 344 344 344S312 329.688 312 312V245.25L190.625 366.625C184.375 372.875 176.188 376 168 376S151.625 372.875 145.375 366.625C132.875 354.125 132.875 333.875 145.375 321.375L266.75 200H200C182.328 200 168 185.688 168 168S182.328 136 200 136H344C361.672 136 376 150.312 376 168V312Z" class="fa-secondary"/><path d="M376 312C376 329.688 361.672 344 344 344S312 329.688 312 312V245.25L190.625 366.625C184.375 372.875 176.187 376 168 376S151.625 372.875 145.375 366.625C132.875 354.125 132.875 333.875 145.375 321.375L266.75 200H200C182.328 200 168 185.688 168 168S182.328 136 200 136H344C361.672 136 376 150.312 376 168V312Z" class="fa-primary"/></svg>

<svg xmlns="http://www.w3.org/2000/svg" viewBox="0 0 512 512"><!--! Font Awesome Pro 6.3.0 by @fontawesome - https://fontawesome.com License - https://fontawesome.com/license (Commercial License) Copyright 2023 Fonticons, Inc. --><defs><style>.fa-secondary{opacity:.4}</style></defs><path class="fa-primary" d="M376 312c0 17.69-14.33 32-32 32s-32-14.31-32-32V245.3l-121.4 121.4C184.4 372.9 176.2 376 168 376s-16.38-3.125-22.62-9.375c-12.5-12.5-12.5-32.75 0-45.25L266.8 200H200c-17.67 0-32-14.31-32-32s14.33-32 32-32h144c17.67 0 32 14.31 32 32V312z"/><path class="fa-secondary" d="M256 0C114.6 0 0 114.6 0 256c0 141.4 114.6 256 256 256s256-114.6 256-256C512 114.6 397.4 0 256 0zM376 312c0 17.69-14.33 32-32 32s-32-14.31-32-32V245.3l-121.4 121.4C184.4 372.9 176.2 376 168 376s-16.38-3.125-22.62-9.375c-12.5-12.5-12.5-32.75 0-45.25L266.8 200H200c-17.67 0-32-14.31-32-32s14.33-32 32-32h144c17.67 0 32 14.31 32 32V312z"/></svg>
